svgs/coinvero.svg

<svg width="192" height="192" viewBox="0 0 192 192" fill="none" xmlns="http://www.w3.org/2000/svg"><circle cx="68" cy="96" r="46" stroke="#000" stroke-width="12"/><path fill-rule="evenodd" clip-rule="evenodd" d="M164 96c0 22.091-17.909 40-40 40a39.832 39.832 0 0 1-25.18-8.918l-10.71 6.546C97.441 142.532 110.081 148 124 148c28.719 0 52-23.281 52-52s-23.281-52-52-52a51.791 51.791 0 0 0-33.45 12.185l8.413 8.618A39.83 39.83 0 0 1 124 56c22.091 0 40 17.909 40 40Z" fill="#000"/><path d="M72 116H54V96h18c5.523 0 10 4.477 10 10s-4.477 10-10 10Zm0-20H54V76h18c5.523 0 10 4.477 10 10s-4.477 10-10 10Z" stroke="#000" stroke-width="8" stroke-linejoin="round"/></svg>

<svg id="vector" xmlns="http://www.w3.org/2000/svg" width="192" height="192" viewBox="0 0 192 192"><path fill="#00000000" d="M68,96m-46,0a46,46 0,1 1,92 0a46,46 0,1 1,-92 0" stroke-width="12" stroke="#000000" id="path_0"/><path fill="#000000" d="M164,96C164,118.091 146.091,136 124,136C114.458,136 105.696,132.659 98.82,127.082L88.109,133.628C97.442,142.532 110.082,148 124,148C152.719,148 176,124.719 176,96C176,67.281 152.719,44 124,44C111.261,44 99.592,48.581 90.55,56.185L98.963,64.803C105.816,59.296 114.523,56 124,56C146.091,56 164,73.909 164,96Z" fill-rule="evenodd" id="path_1"/><path fill="#00000000" d="M72,116H54V96H72C77.523,96 82,100.477 82,106C82,111.523 77.523,116 72,116Z" stroke-linejoin="round" stroke-width="8" stroke="#000000" id="path_2"/><path fill="#00000000" d="M72,96H54V76H72C77.523,76 82,80.477 82,86C82,91.523 77.523,96 72,96Z" stroke-linejoin="round" stroke-width="8" stroke="#000000" id="path_3"/></svg>
